X:1
T:Title
%%score { ( 1 3 ) | ( 2 4 ) }
L:1/8
M:4/4
K:F
V:1 treble nm="Grand Piano"
V:3 treble 
V:2 bass 
V:4 bass 
V:1
 z4 z2[Q:1/4=100] [A,C]>[A,F] | A4 A3 [FA] | [Ec]4 [EG]4 | [DB]2 [G,CE]2 [F,CF]2 [CG]2 | %4
 [CA]6 A>B | c4 [^Fd]3 [DFc] | [DAc]2 [DGB]2 [CGB]2 [CFA]2 | %7
 [CEG]3 [DF][K:bass] [G,CE]2 [F,=B,D]2 | [E,C]6[K:treble] c2 | d2 B2 c2 A2 | B2 G2 A2 F2 | %11
 G2 E2 F2 G2 |[M:3/4] A6 |[M:1/4] f2 |[M:4/4] f8- | f8- | f2 z2 z4 |[M:7/8] [CFA]2 [B,EG]2 [A,F]3 | %18
[M:1/4] c2 |[M:4/4] c2 BA B2 [CFA]2 | c4 C4 | [GB]2- [CG-B-][CGB] [CFA]2 [B,EG]2 | F3 G A2 c2 | %23
 z2 d2[K:bass] [Fd]2[K:treble] [Fd]2 | c4 [FA]4 | [GB]4 [FA]4 | [EG]6 z2 | c2 BA B2 [CFA]2 | %28
 c4 C4 | [GB]2- [CG-B-][CGB] [CFA]2 [B,EG]2 |[M:3/4] [A,F]3 [B,FG] [CFA]2 |[M:1/4] f2 | %32
[M:4/4] f8- | f8- | f2 z2 z4 |[M:3/4] [CFA]2 [CEG]2 [CFA]2 |[M:1/4] f2 |[M:4/4] f8- | f8- | %39
 f2 z2 z4 |[M:7/8] [CFA]2 [B,EG]2 [F,A,F]3 |] %41
V:2
 z4 z2 [F,,F,]>[F,,F,] | [F,C]4 [D,F,D]3 [D,F,] | [C,G,]4 [C,G,]4 | [G,,G,]2 C,B,, A,,2 [C,E,]2 | %4
 [F,,F,]6 [F,C]>[F,G,C] | [F,A,F]4 [D,A,]3 D, | G,2 G,2 E,2 F,2 | G,3 G, G,,2 G,,2 | %8
 C,6[K:treble] A2 | B2 G2 A2 F2 | G2 E2 F2 D2 | E2 C2 D2 E2 |[M:3/4] F6 |[M:1/4] F2 |[M:4/4] F8- | %15
 F8- | F2[K:bass] z2 z4 |[M:7/8] C,2 C,2 F,3 |[M:1/4][K:treble] A2 |[M:4/4] A2 GF G2[K:bass] C,2 | %20
 A,2 G,F, [G,B,]2 F,2 | C,2 C,C, C,2 C,2 | [F,A,]3 [F,B,F] [F,CF]2 [F,A,F]2 | B,2 z2 z4 | F4 z4 | %25
 E,2 E,2 F,2 F,2 | C,2 C,2 C,2[K:treble] A2 | A2 GF G2[K:bass] C,2 | A,2 G,F, [G,B,]2 F,2 | %29
 C,2 C,C, C,2 C,2 |[M:3/4] F,3 F, F,2 |[M:1/4][K:treble] F2 |[M:4/4] F8- | F8- | F2[K:bass] z2 z4 | %35
[M:3/4] C,2 C,2 F,2 |[M:1/4][K:treble] F2 |[M:4/4] F8- | F8- | F2[K:bass] z2 z4 | %40
[M:7/8] C,2 C,2 F,,3 |] %41
V:3
 x8 | x8 | x8 | x8 | x8 | x8 | x8 | x4[K:bass] x4 | x6[K:treble] x2 | x8 | x8 | x8 |[M:3/4] x6 | %13
[M:1/4] x2 |[M:4/4] z2 D2 C2 B,2 | A,2 D2 C2 B,2 | A,2 [Fd]2 [CFc]3 [DFB] |[M:7/8] x7 |[M:1/4] x2 | %19
[M:4/4] x8 | C2 B,A, z2 A,2 | C2 z2 z4 | x8 | [Fd]2 z[K:bass] A,, z C,[K:treble] z E, | %24
 z2 A,2 C2 C2 | C2 C2 C2 C2 | C2 C2 C2 c2 | x8 | C2 B,A, z2 A,2 | C2 z2 z4 |[M:3/4] x6 | %31
[M:1/4] x2 |[M:4/4] z2 D2 C2 B,2 | A,2 D2 C2 B,2 | A,2 [Fd]2 [CFc]3 [DFB] |[M:3/4] x6 |[M:1/4] x2 | %37
[M:4/4] z2 D2 C2 B,2 | A,2 D2 C2 B,2 | A,2 [Fd]2 [CFc]3 [DFB] |[M:7/8] x7 |] %41
V:4
 x8 | x8 | x8 | x8 | x8 | x8 | x8 | x8 | x6[K:treble] x2 | x8 | x8 | x8 |[M:3/4] x6 |[M:1/4] x2 | %14
[M:4/4] z2 B,2 A,2 G,2 | F,2 B,2 A,2 G,2 | F,2[K:bass] [B,,B,]2 A,,3 B,, |[M:7/8] x7 | %18
[M:1/4][K:treble] x2 |[M:4/4] x6[K:bass] x2 | x8 | x8 | x8 | B,,2- [B,,B,F]2 .[B,,B,]2 .[D,B,]2 | %24
 [F,A,]2 F,2 F,2 F,2 | x8 | x6[K:treble] x2 | x6[K:bass] x2 | x8 | x8 |[M:3/4] x6 | %31
[M:1/4][K:treble] x2 |[M:4/4] z2 B,2 A,2 G,2 | F,2 B,2 A,2 G,2 | F,2[K:bass] [B,,B,]2 A,,3 B,, | %35
[M:3/4] x6 |[M:1/4][K:treble] x2 |[M:4/4] z2 B,2 A,2 G,2 | F,2 B,2 A,2 G,2 | %39
 F,2[K:bass] [B,,B,]2 A,,3 B,, |[M:7/8] x7 |] %41

